icon-themes/breeze_svg/xmlsecurity/res/certificate_16.svg

<svg viewBox="0 0 16 16" xmlns="http://www.w3.org/2000/svg"><path d="m2 2v1 11h1 2v-1h-2v-10h10v3h1v-3-1z" fill="#4d4d4d"/><path d="m12 6-.996094.9941406-.003906-.0039062-5 4.9980466.0058594.00586-.0058594.005859.0078125.007812-.0039063.992188h-.0039062v.990234.009766h2l.0058594-.005859.0039062-.003907c.004-.00002.0057656.001954.0097656.001954l-.0058593-.00586.9863281-.986328 4-3.9960938c-.004.002-.004766.0028594-.009766.0058594l.009766-.0117187.998047-.9980469.001953-.0019531z" fill="#27ae60"/></svg>

<svg xmlns="http://www.w3.org/2000/svg" viewBox="0 0 16 16">
    <path
       style="fill:#4d4d4d"
       d="M 2 2 L 2 3 L 2 14 L 3 14 L 5 14 L 5 13 L 3 13 L 3 3 L 13 3 L 13 6 L 14 6 L 14 3 L 14 2 L 2 2 z "
        />
    <path
       style="fill:#27ae60"
       d="M 12 6 L 11.003906 6.9941406 L 11 6.9902344 L 6 11.988281 L 6.0058594 11.994141 L 6 12 L 6.0078125 12.007812 L 6.0039062 13 L 6 13 L 6 13.990234 L 6 14 L 8 14 L 8.0058594 13.994141 L 8.0097656 13.990234 C 8.0137656 13.990214 8.0155312 13.992188 8.0195312 13.992188 L 8.0136719 13.986328 L 9 13 L 13 9.0039062 C 12.996 9.0059062 12.995234 9.0067656 12.990234 9.0097656 L 13 8.9980469 L 13.998047 8 L 14 7.9980469 L 12 6 z " 
        />
</svg>
